svgs/librefind.svg

<svg width="192" height="192" viewBox="0 0 192 192" fill="none" xmlns="http://www.w3.org/2000/svg">
<path d="M103.743 103.743C114.621 97.8064 122 86.265 122 73C122 53.67 106.33 38 87 38H57C51.4637 38 46.2277 39.2854 41.5741 41.5741M103.743 103.743L150.426 150.426M103.743 103.743L41.5741 41.5741M73.5741 103.574C71.2854 108.228 70 113.464 70 119C70 138.33 85.67 154 105 154H124M150.426 150.426L170 170M150.426 150.426C162.021 144.724 170 132.794 170 119C170 102.067 157.976 87.943 142 84.7001M26.257 56.257C23.5426 61.2304 22 66.935 22 73C22 89.9327 34.0243 104.057 50 107.3M41.5741 41.5741L22 22" stroke="black" stroke-width="12" stroke-linecap="round"/>
</svg>

<svg xmlns="http://www.w3.org/2000/svg" width="192" height="192" fill="none" viewBox="0 0 192 192"><path stroke="#000" stroke-linecap="round" stroke-width="12" d="M103.743 103.743C114.621 97.806 122 86.265 122 73c0-19.33-15.67-35-35-35H57a34.86 34.86 0 0 0-15.426 3.574m62.169 62.169 46.683 46.683m-46.683-46.683L41.574 41.574m32 62A34.86 34.86 0 0 0 70 119c0 19.33 15.67 35 35 35h19m26.426-3.574L170 170m-19.574-19.574C162.021 144.724 170 132.794 170 119c0-16.933-12.024-31.057-28-34.3M26.257 56.257A34.84 34.84 0 0 0 22 73c0 16.933 12.024 31.057 28 34.3m-8.426-65.726L22 22"/></svg>
